src/assets/filled/Autonio.svg

<svg width="24" height="24" viewBox="0 0 24 24"  xmlns="http://www.w3.org/2000/svg">
<path d="M12 2C6.48 2 2 6.48 2 12C2 17.52 6.48 22 12 22C17.52 22 22 17.52 22 12C22 6.48 17.52 2 12 2ZM10.7 16.14H6.44C6.25 16.14 6.12998 15.93 6.22998 15.76L8.35999 12.21C8.45999 12.05 8.68998 12.05 8.78998 12.21L10.92 15.76C11.02 15.93 10.9 16.14 10.7 16.14ZM9.87 10.14C9.68 10.14 9.55997 9.92999 9.65997 9.75999L11.79 6.21001C11.89 6.05001 12.12 6.05001 12.22 6.21001L14.35 9.75999C14.45 9.92999 14.33 10.14 14.14 10.14H9.87ZM17.56 16.14H13.3C13.11 16.14 12.99 15.93 13.09 15.76L15.22 12.21C15.32 12.05 15.55 12.05 15.65 12.21L17.78 15.76C17.87 15.93 17.75 16.14 17.56 16.14Z" />
</svg>

<?xml version="1.0" encoding="UTF-8"?>
<svg width="24" height="24" viewBox="0 0 24 24" xmlns="http://www.w3.org/2000/svg">
 <path d="m12 2c-5.52 0-10 4.48-10 10s4.48 10 10 10 10-4.48 10-10-4.48-10-10-10zm-1.3 14.14h-4.26c-0.19 0-0.31002-0.21-0.21002-0.38l2.13-3.55c0.1-0.16 0.32999-0.16 0.42999 0l2.13 3.55c0.1 0.17-0.02 0.38-0.22 0.38zm-0.83-6c-0.19 0-0.31003-0.21001-0.21003-0.38001l2.13-3.55c0.1-0.16 0.33-0.16 0.43 0l2.13 3.55c0.1 0.17-0.02 0.38001-0.21 0.38001h-4.27zm7.69 6h-4.26c-0.19 0-0.31-0.21-0.21-0.38l2.13-3.55c0.1-0.16 0.33-0.16 0.43 0l2.13 3.55c0.09 0.17-0.03 0.38-0.22 0.38z"/>
</svg>
